X:1
T:Pastime With Good Company
M:4/2
L:1/4
K:Bb
 G3 G B3 B| A3/2- B/2- A G F2 z F| B3 B A3 G| F3/2- G/2 F2 G2 z2| B3 B B3 B|\
 A3/2- B/2 A- G F2 z F| B3 B A2 G2| F3/2- G/2 F2 G2 z F| G2 A2 B2 z B|\
 A3/2- B/2 A- G F2 z F| G2 A2 B2 z F| G2 A2 B2 z B| G2 A2 B2 z B| A2- G2 ^F2-G/2-F/2-=E/2-F/2|\
 G4||
